X:1
T:Jessica Lindsay
M:C
L:1/8
Q:80
C:Bruce Gandy
S:Strathspey
K:HP
[| {Gdc}d3/2B/2{g}G3/2A/2{gBGdG}B2{gBd}B/2{e}G3/2 | \
{gcGdG}c2{gcd}c3/2B/2{g}A3/2e/2{gcd}c/2{e}A3/2 | \
{Gdc}d3/2B/2{g}G3/2A/2{gBGdG}B2{g}((3Bcd) |
{g}e3/2f/2{Gdc}d3/2A/2{g}B/2e3/2{A}e3/2c/2{Gdc}d3/2B/2{g}G3/2A/2{gBGdG}B
2{gBd}B/2{e}G3/2 | \
{gcd}c/2{e}A3/2{gAGAG}A3/2B/2{g}c3/2d/2{gef}e3/2c/2 | \
{Gdc}d3/2B/2{gcd}c/2{g}A3/2{gBd}B/2{e}G3/2{g}((3Bcd) |
{g}e3/2f/2{Gdc}d3/2A/2{g}B/2e3/2{A}e|] [ | \
f | \
{gf}((3g3/2f/2{g}efg){aBGdG}B2{gBd}B/2{e}G3/2 | \
{gAGAG}A2{gf}g3/2e/2{ag}a3/2e/2{gfg}f3/2d/2 |
{gf}((3g3/2f/2{g}efg){aBGdG}B2{g}((3Bcd) | \
{g}e3/2f/2{Gdc}d3/2A/2{g}B/2e3/2{A}e3/2f/2{gf}((3g3/2f/2{g}efg){aBGdG}B2
{gBd}B/2{e}G3/2 | \
{gAGAG}A2{gf}g3/2e/2{ag}a3/2e/2{gfg}f3/2d/2 |
{g}((3efg){aBGdG}B2{gf}((3g3/2e/2{g}fed) | \
{g}e3/2f/2{Gdc}d3/2A/2{g}B/2e3/2{A}e|]
